svg/fluentui-system-icons/ic_fluent_crop_interim_off_24_regular.svg

<svg width="24" height="24" viewBox="0 0 24 24" fill="none" xmlns="http://www.w3.org/2000/svg">
<path d="M3.28034 2.21968C2.98745 1.92678 2.51257 1.92677 2.21968 2.21966C1.92678 2.51255 1.92677 2.98743 2.21966 3.28032L3.2843 4.34498C3.10272 4.69141 3 5.08568 3 5.50395C3 6.54434 3.63553 7.4363 4.53954 7.81279L3.72166 13.1236C2.72205 13.4507 2 14.3911 2 15.5C2 16.8807 3.11929 18 4.5 18C5.31747 18 6.04331 17.6077 6.49945 17.001H13.5051C13.9612 17.6077 14.6871 18 15.5045 18C15.9205 18 16.3127 17.8984 16.6578 17.7187L18.4672 19.5282C17.638 20.139 16.6134 20.5 15.5045 20.5C14.4008 20.5 13.3573 20.1405 12.5076 19.5032L13.2507 19.5014L13.3525 19.4946C13.7186 19.4449 14.0007 19.1311 14.0007 18.7514C14.0007 18.3372 13.6649 18.0014 13.2507 18.0014H10.7461L10.6444 18.0082C10.2783 18.0579 9.99613 18.3717 9.99613 18.7514V21.25L10.003 21.3518C10.0526 21.7179 10.3664 22 10.7461 22L10.8479 21.9932C11.214 21.9435 11.4961 21.6297 11.4961 21.25L11.4958 20.6175C12.6201 21.4994 14.0213 22 15.5045 22C17.028 22 18.429 21.4759 19.5372 20.5982L20.7194 21.7805C21.0123 22.0734 21.4872 22.0734 21.7801 21.7805C22.073 21.4876 22.073 21.0127 21.7801 20.7198L3.28034 2.21968ZM13.2859 14.3467C13.1061 14.6918 13.0045 15.084 13.0045 15.5H7L6.99323 15.3146C6.91694 14.274 6.20363 13.4103 5.24162 13.1118L6.03664 7.94621C6.25625 7.89818 6.46507 7.82127 6.6589 7.71965L13.2859 14.3467ZM4.5 14.5C4.55297 14.5 4.60498 14.5041 4.65572 14.5121L4.745 14.5299L4.86801 14.5699L4.97642 14.6206C5.25588 14.7723 5.45494 15.0533 5.49327 15.3834L5.5 15.5L5.49327 15.6166C5.43551 16.114 5.01284 16.5 4.5 16.5L4.38338 16.4933C3.88604 16.4355 3.5 16.0128 3.5 15.5C3.5 14.9872 3.88604 14.5645 4.38338 14.5067L4.5 14.5ZM7.18195 4.00001L8.68184 5.49993H11.9861L11.9918 5.67413C12.0675 6.7989 12.887 7.71982 13.9626 7.94903L14.4773 11.2955L16.2744 13.0926L15.4608 7.80684C16.3573 7.42696 16.9861 6.5389 16.9861 5.50395C16.9861 4.12323 15.8669 3.00395 14.4861 3.00395C13.67 3.00395 12.9453 3.39499 12.489 3.99993L7.18195 4.00001ZM13.7641 6.19576C13.5919 6.01613 13.4861 5.77239 13.4861 5.50395C13.4861 4.99111 13.8722 4.56844 14.3695 4.51067L14.4861 4.50395C14.5376 4.50395 14.5882 4.50784 14.6376 4.51549L14.721 4.53195L14.8674 4.58202L14.972 4.63597L14.9724 4.62993C15.2789 4.80079 15.4861 5.12816 15.4861 5.50395C15.4861 5.74064 15.4039 5.95813 15.2665 6.12939L15.1901 6.21415L15.081 6.30695L14.9873 6.36952L14.9003 6.4144L14.7755 6.46145L14.6054 6.4969L14.4861 6.50395L14.3634 6.49649L14.2849 6.48368L14.193 6.46029L14.0849 6.42021L13.994 6.37395L13.908 6.31995L13.7879 6.2198L13.7641 6.19576ZM20.2527 17.0711L21.4072 18.2256C21.7906 17.3967 22.0045 16.4733 22.0045 15.5C22.0045 12.3085 19.7044 9.65419 16.6714 9.10445L16.9181 10.7026C18.9912 11.3125 20.5045 13.2295 20.5045 15.5C20.5045 16.0488 20.4161 16.577 20.2527 17.0711Z" fill="#212121"/>
</svg>

<svg xmlns="http://www.w3.org/2000/svg" width="24" height="24"><path d="M3.28 2.22a.75.75 0 1 0-1.06 1.06l1.064 1.065A2.5 2.5 0 0 0 4.54 7.813l-.817 5.31A2.501 2.501 0 1 0 6.5 17.001h7.006a2.496 2.496 0 0 0 3.153.718l1.81 1.81c-.83.61-1.855.971-2.963.971a4.983 4.983 0 0 1-2.997-.997l.743-.002.101-.006A.75.75 0 0 0 13.251 18h-2.505l-.102.007a.75.75 0 0 0-.648.743v2.499l.007.102a.75.75 0 0 0 .743.648l.102-.007a.75.75 0 0 0 .648-.743v-.633A6.482 6.482 0 0 0 15.504 22a6.473 6.473 0 0 0 4.033-1.402l1.182 1.183a.75.75 0 0 0 1.061-1.061L3.28 2.22Zm10.006 12.127c-.18.345-.281.737-.281 1.153H7l-.007-.185a2.502 2.502 0 0 0-1.751-2.203l.795-5.166c.22-.048.428-.125.622-.226l6.627 6.627ZM4.5 14.5a1 1 0 0 1 .156.012l.089.018.123.04.108.05a1 1 0 0 1 .517.763l.007.117-.007.117a1 1 0 0 1-.993.883l-.117-.007a1 1 0 0 1 0-1.986L4.5 14.5ZM7.182 4l1.5 1.5h3.304l.006.174a2.502 2.502 0 0 0 1.97 2.275l.515 3.347 1.797 1.797-.813-5.286A2.5 2.5 0 1 0 12.489 4H7.182Zm6.582 2.196a1 1 0 0 1 .605-1.685l.117-.007a.99.99 0 0 1 .152.011l.083.017.146.05.105.054V4.63a1 1 0 0 1 .295 1.5l-.077.084-.109.093-.094.063-.087.044-.125.047-.17.036-.119.007-.123-.008-.078-.012-.092-.024-.108-.04-.091-.046-.086-.054-.12-.1-.024-.024Zm6.489 10.875 1.154 1.155a6.502 6.502 0 0 0-4.736-9.121l.247 1.598a5.002 5.002 0 0 1 3.335 6.368Z"/></svg>
